en/guide/_images/other/icons/equal.svg

<svg width="12" height="12" viewBox="0 0 12 12" fill="none" xmlns="http://www.w3.org/2000/svg">
<path d="M9.9375 3C10.2482 3 10.5 3.33578 10.5 3.75C10.5 4.16421 10.2482 4.5 9.9375 4.5H2.0625C1.75184 4.5 1.5 4.16421 1.5 3.75C1.5 3.33578 1.75184 3 2.0625 3H9.9375Z" fill="#0069FF"/>
<path d="M9.9375 7.5C10.2482 7.5 10.5 7.83578 10.5 8.25C10.5 8.66421 10.2482 9 9.9375 9H2.0625C1.75184 9 1.5 8.66421 1.5 8.25C1.5 7.83578 1.75184 7.5 2.0625 7.5H9.9375Z" fill="#0069FF"/>
</svg>

<svg xmlns="http://www.w3.org/2000/svg" width="12" height="12" fill="none" viewBox="0 0 12 12"><path fill="#0069FF" d="M9.938 3c.31 0 .562.336.562.75s-.252.75-.563.75H2.064c-.311 0-.563-.336-.563-.75S1.752 3 2.063 3h7.874ZM9.938 7.5c.31 0 .562.336.562.75s-.252.75-.563.75H2.064c-.311 0-.563-.336-.563-.75s.252-.75.563-.75h7.874Z"/></svg>
